source/images/icons/icon-editorial/preferences.svg

<?xml version="1.0" encoding="UTF-8"?>
<svg width="80px" height="80px" viewBox="0 0 80 80" version="1.1" xmlns="http://www.w3.org/2000/svg" xmlns:xlink="http://www.w3.org/1999/xlink">
    <!-- Generator: Sketch 55.2 (78181) - https://sketchapp.com -->
    <title>Illustrative Icons/Preferences</title>
    <desc>Created with Sketch.</desc>
    <g id="Illustrative-Icons/Preferences" stroke="none" stroke-width="1" fill="none" fill-rule="evenodd">
        <path d="M14.6666667,44.6666667 C15.5871413,44.6666667 16.3333333,43.9204746 16.3333333,43 L16.3333333,9.66666667 C16.3333333,8.74619208 15.5871413,8 14.6666667,8 C13.7461921,8 13,8.74619208 13,9.66666667 L13,43 C13,43.9204746 13.7461921,44.6666667 14.6666667,44.6666667 Z M14.6666667,61.3333334 C13.7461921,61.3333334 13,62.0795255 13,63.0000001 L13,69.6666667 C13,70.5871413 13.7461921,71.3333334 14.6666667,71.3333334 C15.5871413,71.3333334 16.3333333,70.5871413 16.3333333,69.6666667 L16.3333333,63.0000001 C16.3333333,62.0795255 15.5871413,61.3333334 14.6666667,61.3333334 Z M14.6666667,46.3333334 C10.9847683,46.3333334 8,49.3181017 8,53.0000001 C8,56.6818984 10.9847683,59.6666667 14.6666667,59.6666667 C18.348565,59.6666667 21.3333334,56.6818984 21.3333334,53.0000001 C21.3333334,49.3181017 18.348565,46.3333334 14.6666667,46.3333334 Z M14.6666667,56.3333334 C12.8257175,56.3333334 11.3333333,54.8409492 11.3333333,53.0000001 C11.3333333,51.1590509 12.8257175,49.6666667 14.6666667,49.6666667 C16.5076158,49.6666667 18,51.1590509 18,53.0000001 C18,54.8409492 16.5076158,56.3333334 14.6666667,56.3333334 Z M39.6666667,34.6666667 C38.7461921,34.6666667 38,35.4128588 38,36.3333334 L38,69.6666667 C38,70.5871413 38.7461921,71.3333334 39.6666667,71.3333334 C40.5871413,71.3333334 41.3333334,70.5871413 41.3333334,69.6666667 L41.3333334,36.3333334 C41.3333334,35.4128588 40.5871413,34.6666667 39.6666667,34.6666667 Z M39.6666667,18 C40.5871413,18 41.3333334,17.2538079 41.3333334,16.3333333 L41.3333334,9.66666667 C41.3333334,8.74619208 40.5871413,8 39.6666667,8 C38.7461921,8 38,8.74619208 38,9.66666667 L38,16.3333333 C38,17.2538079 38.7461921,18 39.6666667,18 Z M39.6666667,19.6666667 C35.9847684,19.6666667 33,22.651435 33,26.3333334 C33,30.0152317 35.9847684,33 39.6666667,33 C43.348565,33 46.3333334,30.0152317 46.3333334,26.3333334 C46.3333334,22.651435 43.348565,19.6666667 39.6666667,19.6666667 Z M39.6666667,29.6666667 C37.8257175,29.6666667 36.3333334,28.1742825 36.3333334,26.3333334 C36.3333334,24.4923842 37.8257175,23 39.6666667,23 C41.5076159,23 43,24.4923842 43,26.3333334 C43,28.1742825 41.5076159,29.6666667 39.6666667,29.6666667 Z M64.6666667,48 C63.7461922,48 63.0000001,48.7461921 63.0000001,49.6666667 L63.0000001,69.6666667 C63.0000001,70.5871413 63.7461922,71.3333334 64.6666667,71.3333334 C65.5871413,71.3333334 66.3333334,70.5871413 66.3333334,69.6666667 L66.3333334,49.6666667 C66.3333334,48.7461921 65.5871413,48 64.6666667,48 Z M64.6666667,31.3333334 C65.5871413,31.3333334 66.3333334,30.5871413 66.3333334,29.6666667 L66.3333334,9.66666667 C66.3333334,8.74619208 65.5871413,8 64.6666667,8 C63.7461922,8 63.0000001,8.74619208 63.0000001,9.66666667 L63.0000001,29.6666667 C63.0000001,30.5871413 63.7461922,31.3333334 64.6666667,31.3333334 Z M64.6666667,33 C60.9847684,33 58.0000001,35.9847684 58.0000001,39.6666667 C58.0000001,43.348565 60.9847684,46.3333334 64.6666667,46.3333334 C68.3485651,46.3333334 71.3333334,43.348565 71.3333334,39.6666667 C71.3333334,35.9847684 68.3485651,33 64.6666667,33 Z M64.6666667,43 C62.8257176,43 61.3333334,41.5076159 61.3333334,39.6666667 C61.3333334,37.8257175 62.8257176,36.3333334 64.6666667,36.3333334 C66.5076159,36.3333334 68.0000001,37.8257175 68.0000001,39.6666667 C68.0000001,41.5076159 66.5076159,43 64.6666667,43 Z" id="Shape-color" fill="#ADB5BD"></path>
    </g>
</svg>

<svg width="80" height="80">
    <title>
        Illustrative Icons/Preferences
    </title>
    <path d="M14.667 44.667c.92 0 1.666-.747 1.666-1.667V9.667a1.667 1.667 0 1 0-3.333 0V43c0 .92.746 1.667 1.667 1.667zm0 16.666c-.92 0-1.667.747-1.667 1.667v6.667a1.667 1.667 0 0 0 3.333 0V63c0-.92-.746-1.667-1.666-1.667zm0-15a6.667 6.667 0 1 0 0 13.334 6.667 6.667 0 0 0 0-13.334zm0 10a3.333 3.333 0 1 1 0-6.666 3.333 3.333 0 0 1 0 6.666zm25-21.666c-.92 0-1.667.746-1.667 1.666v33.334a1.667 1.667 0 0 0 3.333 0V36.333c0-.92-.746-1.666-1.666-1.666zm0-16.667c.92 0 1.666-.746 1.666-1.667V9.667a1.667 1.667 0 0 0-3.333 0v6.666c0 .92.746 1.667 1.667 1.667zm0 1.667a6.667 6.667 0 1 0 0 13.333 6.667 6.667 0 0 0 0-13.333zm0 10a3.333 3.333 0 1 1 0-6.667 3.333 3.333 0 0 1 0 6.667zm25 18.333c-.92 0-1.667.746-1.667 1.667v20a1.667 1.667 0 1 0 3.333 0v-20c0-.92-.746-1.667-1.666-1.667zm0-16.667c.92 0 1.666-.746 1.666-1.666v-20a1.667 1.667 0 0 0-3.333 0v20c0 .92.746 1.666 1.667 1.666zm0 1.667a6.667 6.667 0 1 0 0 13.333 6.667 6.667 0 0 0 0-13.333zm0 10a3.333 3.333 0 1 1 0-6.667 3.333 3.333 0 0 1 0 6.667z" fill="#ADB5BD" fill-rule="evenodd"/>
</svg>
